X:34
T: Marianne
M:4/4
N:Singing square
Z:SG
K:F
"F"AA cc FFA2 | "F"AG/B/ -BA "C"G4|"C"c>c cc  ccc2 | "C7"c>B AG  "F"F4|
"F"A>A AF Ac2c | "F7"cB/d/- dc  "Bb"B3d-|"Bb"dd "Bdim"ed  "F/C"c2A2 | "C7"z/c/2B/2AG  "F".F2 c2||
"F"A2c2  F2A2 | "C"AG/B/-B6|"C"G2BB  "C7"EE/G/-G2 | "F"GF/A/-A6|
"F"AA cc  FF/A/-A2 | "C"AG/B/-B6|"C7"GG BB EE/G/-G2 | "F"GF/F/-F6|]
W:All day all night Marianne
W:Down by the seaside siftin' sand
W:Even little children love Marianne
W:Down by the seaside siftin' sand
